assets/svg/icon_protectwallet_icloud.svg

<svg width="24" height="24" viewBox="0 0 24 24" fill="none" xmlns="http://www.w3.org/2000/svg">
<path d="M7.42857 17.6027C5.53502 17.6027 4 16.0858 4 14.2145C4 12.3432 5.53502 10.8263 7.42857 10.8263C7.65587 10.8263 7.878 10.8481 8.09293 10.8898M13.9048 8.8245C14.3814 8.65803 14.8943 8.56744 15.4286 8.56744C15.9523 8.56744 16.4555 8.65448 16.9241 8.81472M8.09293 10.8898C7.90965 10.401 7.80952 9.87223 7.80952 9.32038C7.80952 6.82535 9.85622 4.80273 12.381 4.80273C14.7327 4.80273 16.6697 6.5577 16.9241 8.81472M8.09293 10.8898C8.54447 10.9774 8.96423 11.1527 9.33333 11.3968M16.9241 8.81472C18.7144 9.42692 20 11.1076 20 13.0851C20 15.2507 18.4581 17.0604 16.4 17.5005" stroke="#0E0E0E" stroke-width="1.4" stroke-linecap="round"/>
<path d="M12.0004 15.202V20.002M12.0004 15.202L13.6004 16.802M12.0004 15.202L10.4004 16.802" stroke="#0E0E0E" stroke-width="1.4" stroke-linecap="round" stroke-linejoin="round"/>
</svg>

<svg xmlns="http://www.w3.org/2000/svg" width="24" height="24" fill="none"><path stroke="#0E0E0E" stroke-linecap="round" stroke-width="1.4" d="M7.429 17.603C5.535 17.603 4 16.086 4 14.214c0-1.87 1.535-3.388 3.429-3.388q.341 0 .664.064m5.812-2.065c.476-.167.99-.258 1.524-.258.523 0 1.027.087 1.495.248M8.093 10.89a4.5 4.5 0 0 1-.283-1.57c0-2.495 2.046-4.517 4.571-4.517 2.352 0 4.289 1.755 4.543 4.012M8.093 10.89c.451.087.871.263 1.24.507m7.591-2.582c1.79.612 3.076 2.293 3.076 4.27 0 2.166-1.542 3.975-3.6 4.415"/><path stroke="#0E0E0E" stroke-linecap="round" stroke-linejoin="round" stroke-width="1.4" d="M12 15.202v4.8m0-4.8 1.6 1.6m-1.6-1.6-1.6 1.6"/></svg>
